src/components/Intro/img/vip.svg

<svg width="134" height="103" viewBox="0 0 134 103" fill="none" xmlns="http://www.w3.org/2000/svg">
<rect x="31.79" y="0.62793" width="102" height="102" rx="51" fill="white" fill-opacity="0.08"/>
<g clip-path="url(#clip0_2001_12538)">
<path d="M109.99 40.6723C109.99 42.7586 108.298 44.4501 106.212 44.4501C106.189 44.4501 106.169 44.4381 106.146 44.4378L101.374 70.6839C101.112 72.1129 99.8654 73.1612 98.4015 73.1612H67.1782C65.7181 73.1612 64.4658 72.1167 64.2051 70.6802L59.4347 44.4407C59.4111 44.4407 59.3913 44.4501 59.2827 44.4501C57.1964 44.4501 55.5049 42.7586 55.5049 40.6723C55.5049 38.586 57.2814 36.8945 59.2827 36.8945C61.2839 36.8945 63.0604 38.586 63.0604 40.6723C63.0604 41.5221 62.7279 42.2675 62.2542 42.8984L70.7192 49.67C72.2218 50.8723 74.4498 50.3825 75.3102 48.6614L80.7502 37.7814C79.6827 37.1155 78.9271 35.9822 78.9271 34.6279C78.9271 32.5416 80.7027 30.8501 82.7899 30.8501C84.8771 30.8501 86.4827 32.5416 86.4827 34.6279C86.4827 35.9822 85.7306 37.1155 84.6599 37.7823L90.0999 48.6623C90.9604 50.3831 93.1892 50.8723 94.6908 49.671L103.156 42.8993C102.765 42.2684 102.434 41.4373 102.434 40.6723C102.434 38.5851 104.125 36.8945 106.212 36.8945C108.299 36.8945 109.99 38.5851 109.99 40.6723Z" fill="url(#paint0_linear_2001_12538)"/>
</g>
<rect x="0.19043" y="37.0779" width="48.6" height="29.1" rx="14.55" fill="#FFF730"/>
<path d="M10.9601 44.6414L14.5461 55.9136H14.6837L18.2769 44.6414H21.7542L16.6397 59.4778H12.5973L7.4756 44.6414H10.9601ZM26.6767 44.6414V59.4778H23.5399V44.6414H26.6767ZM29.2575 59.4778V44.6414H35.1109C38.4795 44.6414 40.4282 46.7205 40.4282 49.669C40.4282 52.6319 38.4433 54.6676 35.0312 54.6676H32.3942V59.4778H29.2575ZM32.3942 52.1538H34.5241C36.3207 52.1538 37.1972 51.1396 37.1972 49.669C37.1972 48.1911 36.3207 47.2059 34.5096 47.2059H32.3942V52.1538Z" fill="#181816"/>
<defs>
<linearGradient id="paint0_linear_2001_12538" x1="82.7474" y1="30.8501" x2="82.7474" y2="73.1612" gradientUnits="userSpaceOnUse">
<stop stop-color="#FFB55C"/>
<stop offset="1" stop-color="#F7931A"/>
</linearGradient>
<clipPath id="clip0_2001_12538">
<rect width="54.4" height="54.4" fill="white" transform="translate(55.5898 24.428)"/>
</clipPath>
</defs>
</svg>

<svg xmlns="http://www.w3.org/2000/svg" width="134" height="103" fill="none" xmlns:v="https://vecta.io/nano"><rect x="31.79" y=".628" width="102" height="102" rx="51" fill="#fff" fill-opacity=".08"/><g clip-path="url(#B)"><path d="M109.99 40.672a3.78 3.78 0 0 1-3.778 3.778c-.023 0-.043-.012-.066-.012l-4.772 26.246c-.262 1.429-1.509 2.477-2.972 2.477H67.178a3.02 3.02 0 0 1-2.973-2.481l-4.77-26.239c-.024 0-.043.009-.152.009a3.78 3.78 0 0 1-3.778-3.778c0-2.086 1.776-3.778 3.778-3.778s3.778 1.691 3.778 3.778c0 .85-.333 1.595-.806 2.226l8.465 6.772c1.503 1.202 3.731.712 4.591-1.009l5.44-10.88c-1.068-.666-1.823-1.799-1.823-3.154 0-2.086 1.776-3.778 3.863-3.778s3.693 1.692 3.693 3.778c0 1.354-.752 2.488-1.823 3.154l5.44 10.88c.861 1.721 3.089 2.21 4.591 1.009l8.465-6.772c-.391-.631-.722-1.462-.722-2.227a3.78 3.78 0 0 1 3.778-3.778 3.78 3.78 0 0 1 3.778 3.778z" fill="url(#A)"/></g><rect x=".19" y="37.078" width="48.6" height="29.1" rx="14.55" fill="#fff730"/><path d="M10.96 44.641l3.586 11.272h.138l3.593-11.272h3.477L16.64 59.478h-4.042L7.476 44.641h3.485zm15.717 0v14.836H23.54V44.641h3.137zm2.581 14.836V44.641h5.853c3.369 0 5.317 2.079 5.317 5.028 0 2.963-1.985 4.999-5.397 4.999h-2.637v4.81h-3.137zm3.137-7.324h2.13c1.797 0 2.673-1.014 2.673-2.485 0-1.478-.876-2.463-2.688-2.463h-2.115v4.948z" fill="#181816"/><defs><linearGradient id="A" x1="82.747" y1="30.85" x2="82.747" y2="73.161" gradientUnits="userSpaceOnUse"><stop stop-color="#ffb55c"/><stop offset="1" stop-color="#f7931a"/></linearGradient><clipPath id="B"><path fill="#fff" transform="translate(55.59 24.428)" d="M0 0h54.4v54.4H0z"/></clipPath></defs></svg>
